X:18721
T:White Cockade, The
R:Reel
O:Scotland
M:4/4
K:G
g2|\
d2B2 B2AG|B2B2 B2g2|d2B2 B2AG|B2A2 A2GA|\
B2Bd cBAG|B2d2 g2ga|bagf agfe|d2B2 B2::
Bc|\
d2B2 g2B2|d2d2 d2Bc|d2B2 g2fg|a2A2 A2GA|\
B2Bd cBAG|B2d2 g2ga|bagf agfe|d2B2 B2:|


